X: 31952
T: Pearl Wedding, The
R: reel
M: 4/4
K: Dmajor
|:z2|~D3E DFAd|ef{g}fe dBB/c/d|FAAB AFAd|ceef eAG/F/E|
~D3E DFAd|ef{g}fe dBB/c/d|~A3B Ad (3ded|cdec d2:|
|:ef|ga{b}ag (3fgf ed|Bd{e}dB AF(3FEF|DFAd fafd|ceef e2fg|
~a3g (3fgf ed|Bd (3dcd AFEF|DFAD FAAd|cdec d2:|

